X:1
T:Piano Sonata No. 7 in B Flat Major Op. 83
T:Piano Sonata No. 7 in B Flat Major Op. 83
T:3rd Movement
T:Sergei Prokofiev
C:Sergei Prokofiev
%%score { 1 | 2 }
L:1/8
Q:1/2=80
M:7/8
K:Bb
V:1 bass nm="Piano" snm="Pno."
V:2 bass 
V:1
!mp! [D,F,B,]2 z [D,F,B,]2 [B,,D,F,][B,,D,F,] | %1
 [B,,D,F,]2 [B,,D,F,]2 [B,,D,F,] [B,,E,G,][=C,E,G,] | [C,F,A,]2 z [D,F,B,]2 [D,F,B,][=C,E,B,] | %3
 [F,G,B,]2 [_G,B,C]2 [F,A,C] [=E,^G,C][F,A,C] | [G,_B,C]2 z [=G,B,E]2 [G,B,D][_A,^B,C] | %5
 [G,B,D]2[K:treble] [_A,EG]2 [=A,EG] [B,EG][=B,E_A] | [CE=A]2 z [B,EG]2 [A,EG][_A,EG] | %7
 [G,EG]2 [Ecd]2 [_CEG] [B,EG][=B,E_A] | [CE=A]2 z [B,EG]2 [A,EG][_A,EG] | %9
 [G,EG]2 [Ecd]2 [_CEG] [B,EG][_B,E_A] |!mf! [=G,A,E=A]2 z [G,A,EA]2 [G,A,E_A][G,A,EG] | %11
 [G,A,^D^F]2 [G,A,=DF]2 [G,A,DF] [G,A,DG][G,A,D^G] | [G,A,EA]2 z [^CA^ce]2 [=B,^D^F][_B,DF] | %13
 [G,A,^D^F]2 [G,A,=DF]2 [G,A,DF] [G,A,DG][G,A,D^G] | [G,A,EG=A]2 z [G,A,EGA]2 [G,A,EGA][G,A,EGA] | %15
 [G,A,EGA]2 [G,A,EGA]2 [G,A,EGA] [G,A,EGA][G,A,EGA] | [G,A,EGA]2 z [G,A,EGA]2 [G,A,EGA][G,A,EGA] | %17
 [G,A,EGA]2 [G,A,EGA]2 [G,A,EGA] [G,A,EGA][G,A,EGA] | %18
!f! [DFB]2 z[K:bass]!mf! [D,F,B,]2 [B,,D,F,][B,,D,F,] | %19
 [B,,D,F,]2 [B,,D,F,]2 [B,,D,F,] [B,,E,G,][=C,E,G,] | [C,F,A,]2 z [D,F,B,]2 [D,F,B,][=C,E,B,] | %21
 [F,G,B,]2 [_G,B,E]2 [F,A,C] [=E,^G,C][F,A,C] | [_G,B,C]2 z [=G,B,E]2 [G,B,D][_A,B,^C] | %23
 [G,B,D]2[K:treble] [_A,EG]2 [=A,EG] [B,EG][=B,E_A] | [CE=A]2 z [B,EG]2 [A,EG][_A,EG] | %25
 [G,EG]2 [Ecd]2 g ^fg | ^f'g'_a' g'f' ge' | ^f z2 [B,EG]2 [A,EG][_A,EG] | [G,EG]2 [Ecd]2 g ^fg | %29
 ^f'g'_a' g'f' ge' | ^f z G [EG][_B,EG] [G,EG][_F,E_A] | [G,EG]2 [Ecd]2 g ^fg | ^f'g'_a' g'f' ge' | %33
 ^f z G [EG][_B,EG] [G,EG][_F,E_A] | [G,=A,E=A]2 z [G,A,EA]2 [G,A,E_A][G,A,EG] | %35
 [G,A,^D^F]2 [G,A,=DF]2 [G,A,DF] [G,A,DG][G,A,D^G] | [G,A,EA]2 z [G,A,EA]2 ^FG | z7 | z7 | z7 | %40
 z7 | z7 | z7 | z7 | z7 | z7 | z7 | z7 | z7 | z7 | z7 | z7 | z7 | z7 | z7 | z7 | z7 | z7 | z7 | %59
 z7 | z7 | z7 | z7 | z7 | z7 | z7 | z7 | z7 | z7 | z7 | z7 | z7 | z7 | z7 | z7 | z7 | z7 | z7 | %78
 z7 | z7 | z7 | z7 | z7 | z7 | z7 | z7 | z7 | z7 | z7 | z7 | z7 | z7 | z7 | z7 | z7 | z7 | z7 | %97
 z7 | z7 | z7 | z7 | z7 | z7 | z7 | z7 | z7 | z7 | z7 | z7 | z7 | z7 | z7 | z7 | z7 | z7 | z7 | %116
 z7 | z7 | z7 | z7 | z7 | z7 | z7 | z7 | z7 | z7 | z7 | z7 | z7 | z7 | z7 | z7 | z7 | z7 | z7 | %135
 z7 |] %136
V:2
 z [B,,,B,,] [^C,,^C,]2 [B,,,B,,] z2 | z [B,,,B,,] z [^C,,^C,] z2 z | %2
 z [B,,,B,,] [^C,,^C,]2 [B,,,B,,] z2 | z [B,,,B,,] z [^C,,^C,] z2 z | %4
 z [B,,,B,,] [^C,,^C,]2 [B,,,B,,] z2 | z [B,,,B,,] z [^C,,^C,] z2 z | %6
 z [B,,,B,,] [^C,,^C,]2 [B,,,B,,] z2 | z [B,,,B,,] z [^C,,^C,] z2 z | %8
 z [B,,,B,,] [^C,,^C,]2 [B,,,B,,] z2 | z [B,,,B,,] z [^C,,^C,] z2 z | %10
 z [B,,,B,,] [^C,,^C,]2 [B,,,B,,] z2 | z [=B,,,=B,,] z [^C,,^C,] z2 z | %12
 z [_B,,,_B,,] [^C,,^C,]2 [B,,,B,,] z2 | z [=B,,,=B,,] z [^C,,^C,] z2 z | %14
 z [B,,,B,,] [^C,,^C,]2 [B,,,B,,] z2 | z [B,,,B,,] z [^C,,^C,] z2 z | %16
 z [B,,,B,,] [^C,,^C,]2 [B,,,B,,] z2 | z [B,,,B,,] z [^C,,^C,] z2 z | %18
 z [B,,,B,,] [^C,,^C,]2 [B,,,B,,] z2 | z [B,,,B,,] z [^C,,^C,] z2 z | %20
 z [B,,,B,,] [^C,,^C,]2 [B,,,B,,] z2 | z [B,,,B,,] z [^C,,^C,] z2 z | %22
 z [B,,,B,,] [^C,,^C,]2 [B,,,B,,] z2 | z [B,,,B,,] z [^C,,^C,] z2 z | %24
 z [B,,,B,,] [^C,,^C,]2 [B,,,B,,] z2 | z [B,,,B,,] z [A,,A,]G, ^F,G, | DF^F =Ac e z | %27
 z[K:bass] [B,,,B,,] [^C,,^C,]2 [B,,,B,,] z2 | z [B,,,B,,] z [A,,A,]G, ^F,G, | %29
[K:treble] DE^F =Ac e z | z ^F z3 z2 | z[K:bass-8] [B,,,B,,] z [A,,A,]G, ^F,G, | %32
[K:treble] DE^F =Ac e z | z ^F z3 z2 | z[K:bass] [B,,,B,,] [^C,,^C,]2 [B,,,B,,] z2 | %35
 z [=B,,,=B,,] z [^C,,^C,] z2 z | z [B,,,B,,] [^C,,^C,]2 [B,,,B,,] ^F,G, | z7 | z7 | z7 | z7 | z7 | %42
 z7 | z7 | z7 | z7 | z7 | z7 | z7 | z7 | z7 | z7 | z7 | z7 | z7 | z7 | z7 | z7 | z7 | z7 | z7 | %61
 z7 | z7 | z7 | z7 | z7 | z7 | z7 | z7 | z7 | z7 | z7 | z7 | z7 | z7 | z7 | z7 | z7 | z7 | z7 | %80
 z7 | z7 | z7 | z7 | z7 | z7 | z7 | z7 | z7 | z7 | z7 | z7 | z7 | z7 | z7 | z7 | z7 | z7 | z7 | %99
 z7 | z7 | z7 | z7 | z7 | z7 | z7 | z7 | z7 | z7 | z7 | z7 | z7 | z7 | z7 | z7 | z7 | z7 | z7 | %118
 z7 | z7 | z7 | z7 | z7 | z7 | z7 | z7 | z7 | z7 | z7 | z7 | z7 | z7 | z7 | z7 | z7 | z7 |] %136

